X: 226
T: diao bing
L: 1/8
M: 2/4
K: C
e e e d [I:setbarnb 1]| 
e GA2 | 
e e e d | 
e GA2 | 
e e e e | 
c e d d | 
e> GA2 | 
c c E E | 
D> CD2 |]

@@@ Tune index: 9100
